Obsidian-SemiLight/actions/24s/code-context.svg

<svg viewBox="0 0 24 24" xmlns="http://www.w3.org/2000/svg"><path d="m11.044922 4c-1.7768301 0-2.5214845.7064456-2.5214845 2.5097656v2.4414063c0 1.1138201-.034195 2.4042971-1.015625 2.4042971h-.5078125v1.289062h.5078125c.98148 0 1.015625 1.290477 1.015625 2.404297v2.441406c0 1.80332.7446544 2.509766 2.5214845 2.509766v-1.183594c-1.1845501 0-1.201172-.478327-1.201172-2.210937v-2.015625c0-.83093-.204705-2.067378-1.203125-2.580078.99842-.51271 1.203125-1.751092 1.203125-2.5820316v-2.0332032c0-1.7325999.0165919-2.2109375 1.201172-2.2109374zm1.894531 0v1.1835938c1.18456 0 1.216797.4783375 1.216797 2.2109374v2.0332032c0 .8309396.204705 2.0693216 1.203125 2.5820316-.99842.5127-1.203125 1.749148-1.203125 2.580078v2.015625c0 1.73261-.032187 2.210937-1.216797 2.210937v1.183594c1.77684 0 2.53711-.706446 2.537109-2.509766v-2.441406c0-1.11382.068644-2.404297 1.033204-2.404297h.490234v-1.289062h-.490234c-.96457 0-1.033204-1.290477-1.033204-2.4042971v-2.4414063c0-1.80332-.760269-2.5097656-2.537109-2.5097656z" fill="#4d4d4d"/></svg>

<svg xmlns="http://www.w3.org/2000/svg" viewBox="0 0 24 24">
  <defs id="defs3051">
    <style type="text/css" id="current-color-scheme">
      .ColorScheme-Text {
        color:#4d4d4d;
      }
      </style>
  </defs>
 <path style="fill:currentColor;fill-opacity:1;stroke:none" 
     d="M 11.044922 4 C 9.2680919 4 8.5234375 4.7064456 8.5234375 6.5097656 L 8.5234375 8.9511719 C 8.5234375 10.064992 8.4892425 11.355469 7.5078125 11.355469 L 7 11.355469 L 7 12.644531 L 7.5078125 12.644531 C 8.4892925 12.644531 8.5234375 13.935008 8.5234375 15.048828 L 8.5234375 17.490234 C 8.5234375 19.293554 9.2680919 20 11.044922 20 L 11.044922 18.816406 C 9.8603719 18.816406 9.84375 18.338079 9.84375 16.605469 L 9.84375 14.589844 C 9.84375 13.758914 9.639045 12.522466 8.640625 12.009766 C 9.639045 11.497056 9.84375 10.258674 9.84375 9.4277344 L 9.84375 7.3945312 C 9.84375 5.6619313 9.8603419 5.1835937 11.044922 5.1835938 L 11.044922 4 z M 12.939453 4 L 12.939453 5.1835938 C 14.124013 5.1835938 14.15625 5.6619313 14.15625 7.3945312 L 14.15625 9.4277344 C 14.15625 10.258674 14.360955 11.497056 15.359375 12.009766 C 14.360955 12.522466 14.15625 13.758914 14.15625 14.589844 L 14.15625 16.605469 C 14.15625 18.338079 14.124063 18.816406 12.939453 18.816406 L 12.939453 20 C 14.716293 20 15.476563 19.293554 15.476562 17.490234 L 15.476562 15.048828 C 15.476562 13.935008 15.545206 12.644531 16.509766 12.644531 L 17 12.644531 L 17 11.355469 L 16.509766 11.355469 C 15.545196 11.355469 15.476562 10.064992 15.476562 8.9511719 L 15.476562 6.5097656 C 15.476562 4.7064456 14.716293 4 12.939453 4 z "
     class="ColorScheme-Text"
     />
</svg>
